images/Gamma.svg

<svg height="250" viewBox="0 0 250 250" width="250" xmlns="http://www.w3.org/2000/svg"><path d="m125 250c69.035156 0 125-55.964844 125-125s-55.964844-125-125-125-125 55.964844-125 125 55.964844 125 125 125zm0 0" fill="#ff0025"/><path d="m124.273438 63.160156c-2.390626 0-4.324219 1.9375-4.324219 4.328125v115.332031c0 2.386719 1.933593 4.324219 4.324219 4.324219 2.390624 0 4.324218-1.9375 4.324218-4.324219v-115.332031c0-2.390625-1.933594-4.328125-4.324218-4.328125zm0 0" fill="#fff"/><path d="m248.546875 126.320312c4.78125 0 8.648437 3.875 8.648437 8.65625v230.664063c0 4.773437-3.867187 8.648437-8.648437 8.648437s-8.648437-3.875-8.648437-8.648437v-230.664063c0-4.78125 3.867187-8.65625 8.648437-8.65625zm0 0" fill="none" stroke="#fff" transform="scale(.5)"/><path d="m187.253906 124.953125c0-2.386719-1.9375-4.324219-4.328125-4.324219h-115.332031c-2.386719 0-4.324219 1.9375-4.324219 4.324219 0 2.390625 1.9375 4.328125 4.324219 4.328125h115.332031c2.390625 0 4.328125-1.9375 4.328125-4.328125zm0 0" fill="#fff"/><path d="m374.507812 249.90625c0 4.78125-3.875 8.65625-8.65625 8.65625h-230.664062c-4.773438 0-8.648438-3.875-8.648438-8.65625 0-4.773438 3.875-8.648438 8.648438-8.648438h230.664062c4.78125 0 8.65625 3.875 8.65625 8.648438zm0 0" fill="none" stroke="#fff" transform="scale(.5)"/><path d="m169.152344 169.210938c1.6875-1.691407 1.6875-4.429688 0-6.121094l-81.550782-81.550782c-1.691406-1.6875-4.429687-1.6875-6.117187 0-1.691406 1.691407-1.691406 4.429688 0 6.117188l81.550781 81.554688c1.6875 1.6875 4.425782 1.6875 6.117188 0zm0 0" fill="#fff"/><path d="m338.304688 338.421875c-3.382813 3.375-8.859376 3.375-12.234376 0l-163.101562-163.109375c-3.382812-3.375-3.382812-8.851562 0-12.234375 3.375-3.375 8.851562-3.375 12.234375 0l163.101563 163.101563c3.375 3.382812 3.375 8.859374 0 12.242187zm0 0" fill="none" stroke="#fff" transform="scale(.5)"/><path d="m63.367188 185.558594c1.691406 1.6875 4.429687 1.6875 6.117187 0l115.667969-115.667969c1.691406-1.691406 1.691406-4.429687 0-6.117187-1.6875-1.691407-4.425782-1.691407-6.117188 0l-115.667968 115.667968c-1.6875 1.6875-1.6875 4.425782 0 6.117188zm0 0" fill="#fff"/><path d="m126.734375 371.117188c-3.375-3.382813-3.375-8.859376 0-12.234376l231.335937-231.335937c3.382813-3.382813 8.859376-3.382813 12.234376 0 3.382812 3.375 3.382812 8.851563 0 12.234375l-231.335938 231.335938c-3.375 3.375-8.851562 3.375-12.234375 0zm0 0" fill="none" stroke="#fff" transform="scale(.5)"/></svg>

<svg xmlns="http://www.w3.org/2000/svg" xmlns:xlink="http://www.w3.org/1999/xlink" width="250px" height="250px" viewBox="0 0 250 250" version="1.1">
<g id="surface1">
<path style=" stroke:none;fill-rule:nonzero;fill:rgb(100%,0%,14.509805%);fill-opacity:1;" d="M 125 250 C 194.035156 250 250 194.035156 250 125 C 250 55.964844 194.035156 0 125 0 C 55.964844 0 0 55.964844 0 125 C 0 194.035156 55.964844 250 125 250 Z M 125 250 "/>
<path style=" stroke:none;fill-rule:nonzero;fill:rgb(100%,100%,100%);fill-opacity:1;" d="M 124.273438 63.160156 C 121.882812 63.160156 119.949219 65.097656 119.949219 67.488281 L 119.949219 182.820312 C 119.949219 185.207031 121.882812 187.144531 124.273438 187.144531 C 126.664062 187.144531 128.597656 185.207031 128.597656 182.820312 L 128.597656 67.488281 C 128.597656 65.097656 126.664062 63.160156 124.273438 63.160156 Z M 124.273438 63.160156 "/>
<path style="fill:none;stroke-width:1;stroke-linecap:butt;stroke-linejoin:miter;stroke:rgb(100%,100%,100%);stroke-opacity:1;stroke-miterlimit:4;" d="M 248.546875 126.320312 C 253.328125 126.320312 257.195312 130.195312 257.195312 134.976562 L 257.195312 365.640625 C 257.195312 370.414062 253.328125 374.289062 248.546875 374.289062 C 243.765625 374.289062 239.898438 370.414062 239.898438 365.640625 L 239.898438 134.976562 C 239.898438 130.195312 243.765625 126.320312 248.546875 126.320312 Z M 248.546875 126.320312 " transform="matrix(0.5,0,0,0.5,0,0)"/>
<path style=" stroke:none;fill-rule:nonzero;fill:rgb(100%,100%,100%);fill-opacity:1;" d="M 187.253906 124.953125 C 187.253906 122.566406 185.316406 120.628906 182.925781 120.628906 L 67.59375 120.628906 C 65.207031 120.628906 63.269531 122.566406 63.269531 124.953125 C 63.269531 127.34375 65.207031 129.28125 67.59375 129.28125 L 182.925781 129.28125 C 185.316406 129.28125 187.253906 127.34375 187.253906 124.953125 Z M 187.253906 124.953125 "/>
<path style="fill:none;stroke-width:1;stroke-linecap:butt;stroke-linejoin:miter;stroke:rgb(100%,100%,100%);stroke-opacity:1;stroke-miterlimit:4;" d="M 374.507812 249.90625 C 374.507812 254.6875 370.632812 258.5625 365.851562 258.5625 L 135.1875 258.5625 C 130.414062 258.5625 126.539062 254.6875 126.539062 249.90625 C 126.539062 245.132812 130.414062 241.257812 135.1875 241.257812 L 365.851562 241.257812 C 370.632812 241.257812 374.507812 245.132812 374.507812 249.90625 Z M 374.507812 249.90625 " transform="matrix(0.5,0,0,0.5,0,0)"/>
<path style=" stroke:none;fill-rule:nonzero;fill:rgb(100%,100%,100%);fill-opacity:1;" d="M 169.152344 169.210938 C 170.839844 167.519531 170.839844 164.78125 169.152344 163.089844 L 87.601562 81.539062 C 85.910156 79.851562 83.171875 79.851562 81.484375 81.539062 C 79.792969 83.230469 79.792969 85.96875 81.484375 87.65625 L 163.035156 169.210938 C 164.722656 170.898438 167.460938 170.898438 169.152344 169.210938 Z M 169.152344 169.210938 "/>
<path style="fill:none;stroke-width:1;stroke-linecap:butt;stroke-linejoin:miter;stroke:rgb(100%,100%,100%);stroke-opacity:1;stroke-miterlimit:4;" d="M 338.304688 338.421875 C 334.921875 341.796875 329.445312 341.796875 326.070312 338.421875 L 162.96875 175.3125 C 159.585938 171.9375 159.585938 166.460938 162.96875 163.078125 C 166.34375 159.703125 171.820312 159.703125 175.203125 163.078125 L 338.304688 326.179688 C 341.679688 329.5625 341.679688 335.039062 338.304688 338.421875 Z M 338.304688 338.421875 " transform="matrix(0.5,0,0,0.5,0,0)"/>
<path style=" stroke:none;fill-rule:nonzero;fill:rgb(100%,100%,100%);fill-opacity:1;" d="M 63.367188 185.558594 C 65.058594 187.246094 67.796875 187.246094 69.484375 185.558594 L 185.152344 69.890625 C 186.84375 68.199219 186.84375 65.460938 185.152344 63.773438 C 183.464844 62.082031 180.726562 62.082031 179.035156 63.773438 L 63.367188 179.441406 C 61.679688 181.128906 61.679688 183.867188 63.367188 185.558594 Z M 63.367188 185.558594 "/>
<path style="fill:none;stroke-width:1;stroke-linecap:butt;stroke-linejoin:miter;stroke:rgb(100%,100%,100%);stroke-opacity:1;stroke-miterlimit:4;" d="M 126.734375 371.117188 C 123.359375 367.734375 123.359375 362.257812 126.734375 358.882812 L 358.070312 127.546875 C 361.453125 124.164062 366.929688 124.164062 370.304688 127.546875 C 373.6875 130.921875 373.6875 136.398438 370.304688 139.78125 L 138.96875 371.117188 C 135.59375 374.492188 130.117188 374.492188 126.734375 371.117188 Z M 126.734375 371.117188 " transform="matrix(0.5,0,0,0.5,0,0)"/>
</g>
</svg>
